X: 38062
T: Spirit Of The Border, The
R: polka
M: 2/4
K: Dmajor
A|:d>e f>d|Ad FA|GB Ed|c/d/e/c/ A/g/f/e/|
d>e f>d|Ad FA|GB Ec|1 d2 dA:|2 d2 df||
a>f d>A|Bg g>B|A/F/A/d/ f/d/a/f/|e/^d/e/f/ e/f/g/^g/|
a>f =d>A|B=g g>B|A/F/A/d/ ce|d3 f|
a>f d>A|Bg g>B|A/F/A/d/ f/d/a/f/|e/^d/e/f/ e/A/B/c/|
=d>e f>d|Ad FA|GB Ec|d2 d2||

